assets/Currency exchange/Flat/currency_exchange_flat.svg

<svg width="32" height="32" viewBox="0 0 32 32" fill="none" xmlns="http://www.w3.org/2000/svg">
<path d="M9.57997 2.58405L9.17997 7.65405C9.15997 7.90405 9.35997 8.12405 9.60997 8.12405L14.7 8.09405C15.09 8.08405 15.29 7.63405 15.03 7.35405L13.84 6.07405C13.72 5.95405 13.73 5.75405 13.86 5.65405C14.56 5.10405 15.47 4.77405 16.43 4.81405C18.23 4.88405 19.7 6.27405 20.07 7.95405C20.09 8.04405 20.17 8.11405 20.27 8.11405H22.7C22.83 8.11405 22.93 7.99405 22.91 7.87405C22.47 4.71405 19.83 2.12405 16.53 2.00405C14.78 1.94405 13.15 2.55405 11.92 3.61405C11.8 3.71405 11.63 3.70405 11.52 3.59405L10.34 2.32405C10.08 2.04405 9.60997 2.20405 9.57997 2.58405Z" fill="#00A6ED"/>
<path d="M22.3324 29.54L22.7324 24.47C22.7524 24.22 22.5524 24.01 22.3024 24L17.2124 24.03C16.8224 24.04 16.6224 24.49 16.8824 24.77L18.0724 26.05C18.1924 26.17 18.1824 26.37 18.0524 26.47C17.3524 27.02 16.4424 27.35 15.4824 27.31C13.6824 27.24 12.2124 25.85 11.8424 24.17C11.8224 24.08 11.7424 24.01 11.6424 24.01H9.21237C9.09237 24.01 8.98237 24.12 9.00237 24.25C9.44237 27.41 12.0824 30 15.3824 30.12C17.1324 30.18 18.7624 29.57 19.9924 28.51C20.1124 28.41 20.2824 28.42 20.3924 28.53L21.5724 29.8C21.8324 30.08 22.3024 29.92 22.3324 29.54Z" fill="#00A6ED"/>
<path d="M4.99998 9C4.99998 8.44772 5.4477 8 5.99998 8C6.55227 8 6.99998 8.44772 6.99998 9V10.1281C8.11258 10.3962 8.82312 11.0506 9.23815 11.7601C9.49169 12.1935 9.6193 12.618 9.68473 12.9284C9.71785 13.0855 9.73624 13.2191 9.74651 13.318C9.75166 13.3675 9.75482 13.4088 9.75676 13.4406C9.75773 13.4564 9.75839 13.47 9.75885 13.481L9.7594 13.4956L9.75958 13.5014L9.75965 13.504L9.75968 13.5052C9.75969 13.5057 9.75971 13.5063 8.75999 13.53L9.75971 13.5063C9.7728 14.0584 9.33583 14.5166 8.7837 14.5297C8.23498 14.5427 7.77903 14.1112 7.76056 13.5639L7.76048 13.5626C7.76016 13.5573 7.75925 13.5442 7.75722 13.5246C7.75311 13.4851 7.74462 13.421 7.72774 13.341C7.69318 13.177 7.62828 12.969 7.51183 12.7699C7.31411 12.4319 6.91095 12 5.85999 12C4.7176 12 4.35627 12.3899 4.21197 12.6198C4.01456 12.9343 3.99999 13.3127 3.99999 13.53C3.99999 13.7366 4.01781 14.0716 4.20398 14.3476C4.34136 14.5512 4.71013 14.93 5.87999 14.93C7.62514 14.93 8.68691 15.6657 9.24587 16.6114C9.75354 17.4704 9.75999 18.3613 9.75999 18.58C9.75999 18.9694 9.5908 19.7598 9.0333 20.4715C8.58978 21.0377 7.92704 21.5199 6.99998 21.737V23C6.99998 23.5523 6.55227 24 5.99998 24C5.4477 24 4.99998 23.5523 4.99998 23V21.7758C3.89408 21.5545 3.1566 20.9293 2.70056 20.2918C2.42779 19.9105 2.26063 19.5346 2.16104 19.2559C2.11075 19.1152 2.07624 18.9952 2.05349 18.9061C2.04208 18.8614 2.03354 18.824 2.02739 18.7953C2.02431 18.781 2.02182 18.7687 2.01987 18.7587L2.01733 18.7455L2.01634 18.7401L2.01592 18.7378L2.01572 18.7367C2.01563 18.7362 2.01554 18.7357 2.99999 18.56L2.01554 18.7357C1.91851 18.192 2.28061 17.6726 2.82431 17.5756C3.34756 17.4822 3.84832 17.814 3.97172 18.3238C3.9758 18.3407 3.97949 18.3578 3.98273 18.375L3.98301 18.3763C3.98408 18.3813 3.98676 18.3934 3.9914 18.4116C4.00075 18.4482 4.0176 18.5079 4.04437 18.5828C4.09891 18.7354 4.18871 18.9345 4.32724 19.1282C4.58214 19.4846 5.01827 19.86 5.87999 19.86C6.8142 19.86 7.24125 19.5159 7.45884 19.2381C7.68445 18.9501 7.74416 18.654 7.75695 18.5906C7.75919 18.5795 7.75999 18.5755 7.75999 18.58C7.75999 18.4392 7.74644 18.0052 7.52411 17.629C7.35306 17.3396 6.97484 16.93 5.87999 16.93C4.91303 16.93 4.14683 16.7338 3.55804 16.398C3.12986 16.1539 2.7955 15.836 2.54599 15.4661C2.00216 14.66 1.99999 13.795 1.99999 13.53L1.99999 13.5234C1.99995 13.2608 1.99982 12.3821 2.51801 11.5565C2.9896 10.8052 3.79201 10.2403 4.99998 10.0606V9Z" fill="#533566"/>
<path d="M23.9618 10.887C23.7068 10.3971 23.1029 10.2067 22.613 10.4617C22.1232 10.7167 21.9328 11.3206 22.1878 11.8105L24.8893 17H23C22.4477 17 22 17.4477 22 18C22 18.5523 22.4477 19 23 19H25V20H23C22.4477 20 22 20.4477 22 21C22 21.5523 22.4477 22 23 22H25V23C25 23.5523 25.4477 24 26 24C26.5523 24 27 23.5523 27 23V22H29C29.5523 22 30 21.5523 30 21C30 20.4477 29.5523 20 29 20H27V19H29C29.5523 19 30 18.5523 30 18C30 17.4477 29.5523 17 29 17H27.1108L29.8123 11.8105C30.0673 11.3206 29.8769 10.7167 29.3871 10.4617C28.8972 10.2067 28.2933 10.3971 28.0383 10.887L26.0001 14.8024L23.9618 10.887Z" fill="#533566"/>
</svg>

<svg xmlns="http://www.w3.org/2000/svg" width="32" height="32" fill="none"><path fill="#00A6ED" d="m9.58 2.584-.4 5.07c-.02.25.18.47.43.47l5.09-.03c.39-.01.59-.46.33-.74l-1.19-1.28a.282.282 0 0 1 .02-.42c.7-.55 1.61-.88 2.57-.84 1.8.07 3.27 1.46 3.64 3.14.02.09.1.16.2.16h2.43c.13 0 .23-.12.21-.24-.44-3.16-3.08-5.75-6.38-5.87-1.75-.06-3.38.55-4.61 1.61-.12.1-.29.09-.4-.02l-1.18-1.27a.439.439 0 0 0-.76.26ZM22.332 29.54l.4-5.07a.442.442 0 0 0-.43-.47l-5.09.03c-.39.01-.59.46-.33.74l1.19 1.28c.12.12.11.32-.02.42-.7.55-1.61.88-2.57.84-1.8-.07-3.27-1.46-3.64-3.14a.204.204 0 0 0-.2-.16h-2.43c-.12 0-.23.11-.21.24.44 3.16 3.08 5.75 6.38 5.87 1.75.06 3.38-.55 4.61-1.61.12-.1.29-.09.4.02l1.18 1.27c.26.28.73.12.76-.26Z"/><path fill="#533566" d="M5 9a1 1 0 0 1 2 0v1.128c1.113.268 1.823.923 2.238 1.632a3.935 3.935 0 0 1 .52 1.721l.001.015V13.505l-.999.025 1-.024a1 1 0 0 1-2 .058v-.001a1.81 1.81 0 0 0-.033-.222 1.937 1.937 0 0 0-.215-.571C7.314 12.432 6.91 12 5.86 12c-1.142 0-1.504.39-1.648.62-.197.314-.212.693-.212.91 0 .207.018.542.204.818.137.203.506.582 1.676.582 1.745 0 2.807.736 3.366 1.681.508.86.514 1.75.514 1.969 0 .39-.17 1.18-.727 1.892-.443.566-1.106 1.048-2.033 1.265V23a1 1 0 1 1-2 0v-1.224a3.662 3.662 0 0 1-2.3-1.484 4.25 4.25 0 0 1-.673-1.497 1.912 1.912 0 0 1-.007-.036l-.003-.014v-.005l-.001-.002v-.001L3 18.56l-.984.176a1 1 0 0 1 1.967-.361v.001a1.952 1.952 0 0 0 .061.206c.055.153.145.352.283.546.255.357.691.732 1.553.732.934 0 1.361-.344 1.579-.622.225-.288.285-.584.298-.647.002-.012.003-.015.003-.011 0-.14-.014-.575-.236-.951-.17-.29-.55-.699-1.644-.699-.967 0-1.733-.196-2.322-.532a2.992 2.992 0 0 1-1.012-.932C2.002 14.66 2 13.795 2 13.53v-.007c0-.262 0-1.14.518-1.966C2.99 10.804 3.792 10.24 5 10.06V9ZM23.962 10.887a1 1 0 1 0-1.774.923L24.889 17H23a1 1 0 1 0 0 2h2v1h-2a1 1 0 1 0 0 2h2v1a1 1 0 1 0 2 0v-1h2a1 1 0 1 0 0-2h-2v-1h2a1 1 0 1 0 0-2h-1.89l2.702-5.19a1 1 0 0 0-1.774-.923L26 14.802l-2.038-3.915Z"/></svg>
